public/assets/images/icons/green/edit/folder-lock-empty2.svg

<svg width="16" height="16" xmlns="http://www.w3.org/2000/svg" viewBox="0 0 16 16" shape-rendering="geometricPrecision" fill="#00962d"><defs><mask id="a"><rect fill="#fff" width="100%" height="100%"/><path d="M15.568.488c.365-.9-.337-1.487-.851-1.704-.593-.25-1.396-.157-1.78.752l-.142.357-2.14 5.317.603 2.278 1.98-1.23L15.44.788l.128-.3z" fill="#000"/></mask></defs><g fill="#cb1800"><path d="M11.686 6.423l.6-.513-.675-.269zM14.245.038a.714.714 0 0 0-.927.393l-.213.531 1.326.532.214-.532h-.001a.714.714 0 0 0-.399-.924zM11.527 4.9l1.433-3.573 1.325.532-1.433 3.572z"/></g><g mask="url(#a)"><path d="M8.001 12.153a.466.466 0 0 0 .466-.466V10.4a.467.467 0 1 0-.935 0v1.287a.469.469 0 0 0 .469.466z"/><path d="M7.394 4.755l-.816-1.923h-3.78l-.816 1.923H.861V14h14.278V4.755H7.394zM5.997 7.961a2.003 2.003 0 0 1 4.005 0v.618h-.76v-.618a1.242 1.242 0 1 0-2.485 0v.618h-.76v-.618zm4.656 5.018H5.346V9.106h5.307v3.873z"/></g></svg>

<?xml version="1.0"?><!DOCTYPE svg PUBLIC "-//W3C//DTD SVG 1.1//EN" "http://www.w3.org/Graphics/SVG/1.1/DTD/svg11.dtd"><svg width="16px" height="16px" xmlns="http://www.w3.org/2000/svg" viewBox="0 0 16 16" shape-rendering="geometricPrecision" fill="#00962d"><defs><mask id="edit-path"><rect fill="#fff" width="100%" height="100%"/><path d="M15.568,0.488c0.365-0.9-0.337-1.487-0.851-1.704c-0.593-0.25-1.396-0.157-1.78,0.752l-0.142,0.357 l-2.14,5.317l0.603,2.278l1.98-1.23l2.202-5.47L15.568,0.488z" fill="#000"/></mask></defs><g id="edit_3_" fill="#cb1800"><polygon points="11.686,6.423 12.286,5.91 11.611,5.641 "/><path d="M14.245,0.038c-0.365-0.147-0.778,0.03-0.927,0.393l-0.213,0.531l1.326,0.532l0.214-0.532h-0.001 C14.787,0.597,14.61,0.183,14.245,0.038z"/><rect x="10.982" y="2.666" transform="matrix(0.3723 -0.9281 0.9281 0.3723 4.9642 14.0992)" width="3.849" height="1.428"/></g><g mask="url(#edit-path)"><g><path d="M8.001,12.153c0.258,0,0.466-0.209,0.466-0.466v-1.287c0-0.257-0.208-0.466-0.468-0.466 c-0.257,0-0.467,0.209-0.467,0.466v1.287C7.533,11.944,7.743,12.153,8.001,12.153z"/><path d="M7.394,4.755L6.578,2.832H2.798L1.982,4.755H0.861V14h14.278V4.755H7.394z M5.997,7.961c0-1.106,0.897-2.003,2.003-2.003 c1.106,0,2.002,0.897,2.002,2.003v0.618h-0.76V7.961c0-0.687-0.556-1.243-1.242-1.243c-0.686,0-1.243,0.555-1.243,1.243v0.618 h-0.76V7.961z M10.653,12.979H5.346V9.106h5.307V12.979z"/></g></g></svg>
